apps/workflowengine/img/app.svg

<svg width="16" height="16" version="1.1" viewbox="0 0 16 16" xmlns="http://www.w3.org/2000/svg"><path d="m3.084 3c-1.0027 0-1.834 0.83129-1.834 1.834v2.166h-0.23633c-1.3523-0.019125-1.3523 2.0191 0 2h0.23633v2.166c0 1.0027 0.83129 1.834 1.834 1.834h4.332c1.0027 0 1.834-0.83129 1.834-1.834v-2.166h3.3359l-1.7832 1.7832c-0.98163 0.94251 0.47151 2.3957 1.4141 1.4141l3.4902-3.4902c0.387-0.3878 0.391-1.0229 0-1.4141l-3.4902-3.4902c-0.1883-0.1935-0.4468-0.30271-0.7168-0.30273-0.8974 0-1.3404 1.0909-0.69727 1.7168l1.7832 1.7832h-3.3359v-2.166c0-1.0027-0.83129-1.834-1.834-1.834h-4.332zm0 1.5h4.332c0.19764 0 0.33398 0.13634 0.33398 0.33398v6.332c0 0.19764-0.13634 0.33398-0.33398 0.33398h-4.332c-0.19764 0-0.33398-0.13634-0.33398-0.33398v-6.332c0-0.19764 0.13634-0.33398 0.33398-0.33398z" fill="#fff"/></svg>

<svg xmlns="http://www.w3.org/2000/svg" width="16" height="16"><path fill="#fff" d="M3.084 3A1.847 1.847 0 0 0 1.25 4.834V7h-.236c-1.353-.02-1.353 2.02 0 2h.236v2.166c0 1.003.831 1.834 1.834 1.834h4.332a1.847 1.847 0 0 0 1.834-1.834V9h3.336l-1.783 1.783c-.982.943.471 2.396 1.414 1.414l3.49-3.49a1.003 1.003 0 0 0 0-1.414l-3.49-3.49A1 1 0 0 0 11.5 3.5c-.897 0-1.34 1.091-.697 1.717L12.586 7H9.25V4.834A1.847 1.847 0 0 0 7.416 3H3.084zm0 1.5h4.332c.198 0 .334.136.334.334v6.332a.318.318 0 0 1-.334.334H3.084a.318.318 0 0 1-.334-.334V4.834c0-.198.136-.334.334-.334z"/></svg>
